X:1
T:Title
%%score { ( 1 3 ) | ( 2 4 ) }
L:1/8
M:4/4
K:G
V:1 treble nm="Grand Piano"
V:3 treble 
V:2 bass 
V:4 bass 
V:1
 z4 z2[Q:1/4=100] [EG]2 | [EG]3 [EG] [^DF]2 [DA]2 | [EG]3 [EG] E2 G2 | z4 .A2 z2 | [DB]6 [DGB]2 | %5
 [CGc]3 [CGc] [DGB]2 [DFA]2 | [DGd]2 [CDF]2 [B,G]2 [DFA]2 | [DGB]2 .[EGd]2 [DGB]2 [CFA]2 | %8
[M:3/4] [B,G]6 |[M:1/4] [B,G]2 |[M:4/4] [DGB]3 [DGB] [DGA]2 [DGB]2 | [CGc]3 [EG] [EG]2 [EG]2 | %12
 [Gd]3 [Gd] [Gc]2 d2 | e6 e2 | e3 e d2 e2 |[M:9/8] =f2 A- A A2- A A2 |[M:4/4] G2 c2 c2 B2 | %17
[M:3/4] [Ec]6 |] %18
V:2
 z4 z2 [C,C]2 | [C,C]3 [C,C] [C,A,]2 [C,F,]2 | [C,G,]3 [C,G,] [C,G,C]2 [E,C]2 | %3
 [=F,C]2 [E,C]2 [D,G,]2 [C,G,]2 | G,6 =F,2 | E,3 E, D,2 C,2 | B,,2 A,,2 G,,2 D,2 | %7
 G,2 z[K:treble] c[K:bass] D,2 D,2 |[M:3/4] G,,6 |[M:1/4] G,2 |[M:4/4] G,3 G, =F,2 F,2 | %11
 E,3 [C,C] [C,C]2 [C,C]2 | [G,B,]3 [G,B,] [E,C]2[K:treble] [G,B,G]2 | [CG]6 [CG]2 | %14
 [CG]3 [CG] [_B,CG]2 [B,CG]2 |[M:9/8] [A,C=F]2[K:bass] [=F,CF]- [F,CF] [F,CF]2- [F,CF] [^F,C^D]2 | %16
[M:4/4][K:treble] [G,CE]2 [G,EG]2 [G,D=F]2 [G,DF]2 |[M:3/4][K:bass] [C,C]6 |] %18
V:3
 x8 | x8 | x8 | A2 G2 =F-[FB] [Ec]2 | x8 | x8 | x8 | x8 |[M:3/4] x6 |[M:1/4] x2 |[M:4/4] x8 | x8 | %12
 x8 | x8 | x8 |[M:9/8] x9 |[M:4/4] x8 |[M:3/4] x6 |] %18
V:4
 x8 | x8 | x8 | x8 | x8 | x8 | x8 | z2 C,2[K:treble][K:bass] z4 |[M:3/4] x6 |[M:1/4] x2 | %10
[M:4/4] x8 | x8 | x6[K:treble] x2 | x8 | x8 |[M:9/8] x2[K:bass] x7 |[M:4/4][K:treble] x8 | %17
[M:3/4][K:bass] x6 |] %18

